school977/img/star.svg

<svg width="24" height="24" viewBox="0 0 24 24" fill="none" xmlns="http://www.w3.org/2000/svg">
<path d="M11.0825 2.61573C11.4307 1.81285 12.5693 1.81285 12.9175 2.61573L15.0238 7.47316C15.1687 7.80732 15.4838 8.03626 15.8464 8.07081L21.117 8.57304C21.9882 8.65605 22.34 9.73892 21.684 10.3181L17.7152 13.8224C17.4422 14.0635 17.3218 14.4339 17.401 14.7894L18.5521 19.9573C18.7423 20.8115 17.8212 21.4807 17.0676 21.0358L12.5084 18.3441C12.1948 18.159 11.8052 18.159 11.4916 18.3441L6.93241 21.0358C6.17882 21.4807 5.25768 20.8115 5.44794 19.9573L6.59899 14.7894C6.67817 14.4339 6.55781 14.0635 6.28479 13.8224L2.31599 10.3181C1.66 9.73892 2.01184 8.65605 2.88301 8.57304L8.1536 8.07081C8.51618 8.03626 8.8313 7.80732 8.9762 7.47316L11.0825 2.61573Z" fill="white"/>
</svg>

<svg width="24" height="24" fill="none" xmlns="http://www.w3.org/2000/svg"><path d="M11.082 2.616c.349-.803 1.487-.803 1.835 0l2.107 4.857a1 1 0 0 0 .822.598l5.271.502c.871.083 1.223 1.166.567 1.745l-3.969 3.504a1 1 0 0 0-.314.967l1.151 5.168c.19.854-.73 1.524-1.484 1.079l-4.56-2.692a1 1 0 0 0-1.016 0l-4.56 2.692c-.753.445-1.674-.225-1.484-1.079l1.151-5.168a1 1 0 0 0-.314-.967l-3.969-3.504c-.656-.58-.304-1.662.567-1.745l5.27-.502a1 1 0 0 0 .823-.598l2.106-4.857z" fill="#fff"/></svg>
